<?xml version="1.0" encoding="UTF-8"?>
<map version="1.10" tiledversion="1.10.2" orientation="orthogonal" renderorder="right-down" width="30" height="20" tilewidth="16" tileheight="16" infinite="0" nextlayerid="2" nextobjectid="1">
 <tileset firstgid="1" source="wall.tsj"/>
 <tileset firstgid="5" source="stone.tsj"/>
 <tileset firstgid="9" source="roof.tsj"/>
 <tileset firstgid="41" source="grass.tsj"/>
 <layer id="1" name="Tile Layer 1" width="30" height="20">
  <data encoding="csv">
16,26,26,26,26,26,26,26,26,26,26,26,26,26,26,26,26,26,26,26,26,26,26,26,26,26,26,26,26,32,
19,1,1,1,1,1,1,1,1,1,1,1,1,1,1,1,1,1,1,1,1,1,1,1,1,1,1,1,1,17,
19,5,5,5,5,5,5,5,5,5,5,5,5,5,5,5,5,5,5,5,5,5,5,5,5,5,5,5,5,17,
19,5,5,5,5,5,5,5,5,5,5,5,5,29,34,34,34,34,34,34,34,34,34,34,34,34,34,34,34,39,
19,5,5,5,5,5,5,5,5,5,5,5,5,20,1,1,1,1,1,1,1,1,1,1,1,1,1,1,1,17,
19,5,5,5,5,5,5,5,5,5,5,5,5,28,5,5,5,5,5,5,5,5,5,5,5,5,5,5,5,17,
19,5,5,5,5,5,5,5,5,5,5,5,5,1,5,5,5,5,5,5,5,5,5,5,5,5,5,5,5,17,
19,5,5,5,5,5,5,5,5,5,5,5,5,5,5,5,5,5,5,5,5,5,5,5,5,5,5,5,5,17,
19,5,5,5,5,5,5,5,5,5,5,5,5,12,5,5,5,5,5,5,5,5,5,5,5,5,5,5,5,17,
19,5,5,5,5,5,5,5,5,5,5,5,5,20,5,5,5,5,5,5,5,5,5,5,5,5,5,5,5,17,
19,5,5,5,5,5,5,5,5,5,5,5,5,20,5,5,5,5,5,5,5,5,5,5,5,5,5,5,5,17,
31,34,34,34,35,5,5,5,33,34,34,34,14,22,34,35,5,5,5,5,5,29,34,34,35,5,33,34,34,39,
19,1,1,1,1,5,5,5,1,1,1,1,20,1,1,1,5,5,12,5,5,20,1,1,1,5,1,1,1,17,
19,5,5,5,5,5,5,5,5,5,5,5,20,5,5,5,5,5,20,5,5,20,5,5,5,5,5,5,5,17,
19,5,5,5,5,5,5,5,5,5,5,5,20,5,5,5,5,5,20,5,5,20,5,5,5,5,5,5,5,17,
31,34,34,34,34,34,34,34,34,34,34,34,22,34,34,34,34,34,21,5,5,37,34,34,34,34,34,34,34,39,
19,1,1,1,1,1,1,1,1,1,1,1,1,1,1,1,1,1,1,5,5,1,1,1,1,1,1,1,1,17,
19,5,5,5,5,5,5,5,5,5,5,5,5,5,5,5,5,5,5,5,5,5,5,5,5,5,5,5,5,17,
19,5,5,5,5,5,5,5,5,5,5,5,5,5,5,5,5,5,5,5,5,5,5,5,5,5,5,5,5,17,
24,10,10,10,10,10,10,10,10,10,10,10,10,10,10,10,10,10,10,10,10,10,10,10,10,10,10,10,10,40
</data>
 </layer>
</map>
